X:887
T:Mason's Apron, The
R:reel
H:Quite a different two-part version from Micho Russell.
H:See also #646, #643, #644, #645, #740
Z:id:hn-reel-887
M:C|
K:A
af |: ecBc ~A3F | EFAB cAAc | B3A BAFA | B2ce fgaf |
ecBc ~A3F | EFAB cAAc | Bcde f2af |1 ecBc A2af :|2 ecBc A2AB ||
|: A2eA fAeA | A2eA fAeA | B2fB aBfB | B2fg afec |
A2eA fAeA | A2eA fAec | dcde fgaf |1 ecBc A2AB :|2 ecBc A2 ||

